X:1
T:BWV 0779
T:Invention 8    (A = 415 Hz)
T:Johann Sebastian Bach
%%score { 1 | 2 }
L:1/8
M:3/4
K:F
V:1 treble 
V:2 bass 
V:1
 z FAFcF | fe/d/ c/d/c/B/ A/B/A/G/ | FA cA fc | a/c'/b/c'/ a/c'/b/c'/ a/c'/b/c'/ | %4
 f/a/g/a/ f/a/g/a/ f/a/g/a/ | d/f/e/f/ d/f/e/f/ d/f/e/f/ | =BG dB fd | g/a/g/f/ e/f/e/d/ c/d/c/B/ | %8
 Ad/c/ =B/c/B/A/ G/A/G/F/ | E/F/E/D/ Cc/=B/ cE | Fc Ec D=B | c2 z4 | z cecgc | %13
 c'=b/a/ g/a/g/f/ e/f/e/d/ | c/B/c/a/ c/a/B/a/ c/a/A/a/ | BGBGdG | gf/_e/ d/e/d/c/ B/c/B/A/ | %17
 GBdBgd | b_d bd b^c | dAfdaf | g/f/g/b/ c/b/d/b/ e/b/c/b/ | f/e/f/a/ =B/a/^c/a/ d/a/B/a/ | %22
 e/d/e/g/ A/g/=B/g/ ^c/g/A/g/ | fd Bd Gf | ec AcF_e | d/f/_e/f/ d/f/e/f/ d/f/e/f/ | %26
 B/d/c/d/ B/d/c/d/ B/d/c/d/ | G/B/A/B/ G/B/A/B/ G/B/A/B/ | EC GE BG | c/d/c/B/ A/B/A/G/ F/G/F/_E/ | %30
 DG/F/ E/F/E/D/ C/D/C/B,/ | A,/B,/A,/G,/ F,F/E/ FA, | B,F A,F G,E | !fermata![A,CF]2 z2 z2 |] %34
V:2
 z6 | z F,A,F,CF, | FE/D/ C/D/C/B,/ A,/B,/A,/G,/ | F,A,CA,FC | %4
[K:treble] A/c/B/c/ A/c/B/c/ A/c/B/c/ | F/A/G/A/ F/A/G/A/ F/A/G/A/ | D/F/E/F/ D/F/E/F/ D/F/E/F/ | %7
[K:bass] =B,G, CG, EC | F/G/F/E/ D/E/D/C/ =B,/C/B,/A,/ | G,C/=B,/ A,/B,/A,/G,/ F,/G,/F,/E,/ | %10
 D,/E,/D,/C,/ G,/F,/E,/F,/ G,G,, | z C,E,C,G,C, | C=B,/A,/ G,/A,/G,/F,/ E,/F,/E,/D,/ | %13
 C,E,G,E,CG, | _E^F, EF, EF, | G,=F,/_E,/ D,/E,/D,/C,/ B,,/C,/B,,/A,,/ | G,,G,B,G,DG, | %17
 GF/_E/ D/E/D/C/ B,/C/B,/A,/ | G,/F,/G,/E/ G,/E/F,/E/ G,/E/E,/E/ | %19
 F,/E,/F,/D/ F,/D/E,/D/ F,/D/D,/D/ | B,G, E,G, C,E, | A,F, D,F,=B,,D, | G,E, ^C,E, A,,C, | %23
 D,,/D,/C,/D,/ G,,/D,/A,,/D,/ B,,/D,/G,,/D,/ | B,,,/C,/B,,/C,/ F,,/C,/G,,/C,/ A,,/C,/F,,/C,/ | %25
 B,,D, F,D, B,F, | D/F/_E/F/ D/F/E/F/ D/F/E/F/ | B,/D/C/D/ B,/D/C/D/ B,/D/C/D/ | %28
 G,/B,/A,/B,/ G,/B,/A,/B,/ G,/B,/A,/B,/ | E,C, F,C, A,F, | B,/C/B,/A,/ G,/A,/G,/F,/ E,/F,/E,/D,/ | %31
 C,F,/E,/ D,/E,/D,/C,/ B,,/C,/B,,/A,,/ | G,,/A,,/G,,/F,,/ C,/B,,/A,,/B,,/ C,C,, | %33
 !fermata!F,,2 z2 z2 |] %34

